public/images/platform/translation.svg

<svg width="52" height="53" viewBox="0 0 52 53" fill="none" xmlns="http://www.w3.org/2000/svg">
<path d="M0 26.5C0 12.1406 11.6406 0.5 26 0.5V0.5C40.3594 0.5 52 12.1406 52 26.5V26.5C52 40.8594 40.3594 52.5 26 52.5V52.5C11.6406 52.5 0 40.8594 0 26.5V26.5Z" fill="url(#paint0_linear_2095_9671)"/>
<g clip-path="url(#clip0_2095_9671)">
<path d="M23.2172 35.8327H20.1663C19.5475 35.8327 18.954 35.5868 18.5164 35.1493C18.0788 34.7117 17.833 34.1182 17.833 33.4993V19.4993C17.833 18.8805 18.0788 18.287 18.5164 17.8494C18.954 17.4118 19.5475 17.166 20.1663 17.166H29.4997C30.1185 17.166 30.712 17.4118 31.1496 17.8494C31.5872 18.287 31.833 18.8805 31.833 19.4993V28.8327" stroke="white" stroke-width="2" stroke-linecap="round" stroke-linejoin="round"/>
<path d="M28.333 34.6673L30.6663 37.0007L35.333 32.334" stroke="white" stroke-width="2" stroke-linecap="round" stroke-linejoin="round"/>
<path d="M22.5 21.834H27.1667" stroke="white" stroke-width="2" stroke-linecap="round" stroke-linejoin="round"/>
<path d="M22.5 26.5H24.8333" stroke="white" stroke-width="2" stroke-linecap="round" stroke-linejoin="round"/>
</g>
<defs>
<linearGradient id="paint0_linear_2095_9671" x1="302" y1="225.995" x2="-8.5" y2="0.49535" gradientUnits="userSpaceOnUse">
<stop stop-color="#00A7B9"/>
<stop offset="0.755937" stop-color="#EAB503"/>
<stop offset="1" stop-color="#FF5F45"/>
</linearGradient>
<clipPath id="clip0_2095_9671">
<rect width="28" height="28" fill="white" transform="translate(12 12.5)"/>
</clipPath>
</defs>
</svg>

<svg xmlns="http://www.w3.org/2000/svg" width="52" height="53" fill="none"><path fill="url(#a)" d="M0 26.5C0 12.14 11.64.5 26 .5s26 11.64 26 26-11.64 26-26 26-26-11.64-26-26"/><g stroke="#fff" stroke-linecap="round" stroke-linejoin="round" stroke-width="2" clip-path="url(#b)"><path d="M23.217 35.833h-3.05a2.334 2.334 0 0 1-2.334-2.334v-14a2.333 2.333 0 0 1 2.333-2.333H29.5a2.333 2.333 0 0 1 2.333 2.333v9.334M28.333 34.667l2.333 2.334 4.667-4.667M22.5 21.834h4.667M22.5 26.5h2.333"/></g><defs><linearGradient id="a" x1="302" x2="-8.5" y1="225.995" y2=".495" gradientUnits="userSpaceOnUse"><stop stop-color="#00A7B9"/><stop offset=".756" stop-color="#EAB503"/><stop offset="1" stop-color="#FF5F45"/></linearGradient><clipPath id="b"><path fill="#fff" d="M12 12.5h28v28H12z"/></clipPath></defs></svg>
